X: 1489
T: Courting Them All   #2
T: ag suiri\.d iad go leir.
R: reel
%S: s:2 b:10(4+6)
O: Cronin
B: O'Neill's "Music of Ireland" 1850 #1489
Z: John B. Walsh, 8/22/96
M: C|
L: 1/8
K: D
F | DF ((3ABc) d2 ((3ABc) | d2(fd) ecAc | d2(Ac) BAGF | EFGE FD D :|
|: c | d2(fd) ((3fga) (fd) | g2bg ecAc |1 d2fd ((3fga) fd | efge fd d :|2 d2(Ac) BAGF | EFGE FD D |]
